src/images/icons/sprite.svg

<svg aria-hidden="true" style="position: absolute; width: 0; height: 0; overflow: hidden; fill:none" version="1.1" xmlns="http://www.w3.org/2000/svg" xmlns:xlink="http://www.w3.org/1999/xlink">
<defs>
<symbol id="arrow-left">
<path d="M4 12L20 12M4 12L10 6M4 12L10 18" stroke="#54ADFF" stroke-width="1.5" stroke-linecap="round" stroke-linejoin="round"/>
</symbol>
<symbol id="camera">
<path d="M12 16C13.6569 16 15 14.6569 15 13C15 11.3431 13.6569 10 12 10C10.3431 10 9 11.3431 9 13C9 14.6569 10.3431 16 12 16Z" stroke="#54ADFF" stroke-width="1.5" stroke-linejoin="round" fill="none"/>
<path d="M3 9C3 7.89543 3.89543 7 5 7H7.5C8.05228 7 8.5 6.55228 8.5 6C8.5 5.44772 8.94772 5 9.5 5H14.5C15.0523 5 15.5 5.44772 15.5 6C15.5 6.55228 15.9477 7 16.5 7H19C20.1046 7 21 7.89543 21 9V17C21 18.1046 20.1046 19 19 19H5C3.89543 19 3 18.1046 3 17V9Z" stroke="#54ADFF" stroke-width="1.5" stroke-linejoin="round" fill="none"/>
</symbol>
<symbol id="check-round">
<path d="M17 9L9.99998 16L6.99994 13M8 20H16C18.2091 20 20 18.2091 20 16V8C20 5.79086 18.2091 4 16 4H8C5.79086 4 4 5.79086 4 8V16C4 18.2091 5.79086 20 8 20Z" stroke="#54ADFF" stroke-width="1.5" stroke-linecap="round" stroke-linejoin="round" fill="none"/>
</symbol>
<symbol id="check">
<path d="M20.0001 7L9.0001 18L4 13" stroke="#54ADFF" stroke-width="1.5" stroke-linecap="round" stroke-linejoin="round" fill="none"/>
</symbol>
<symbol id="arrow-down">
<path d="M4 9L12 17L20 9" stroke="#54ADFF" stroke-width="1.5" stroke-linecap="round" stroke-linejoin="round" fill="none"/>
</symbol>
<symbol id="arrow-up">
<path d="M20 15L12 7L4 15" stroke="#54ADFF" stroke-width="1.5" stroke-linecap="round" stroke-linejoin="round" fill="none"/>
</symbol>
<symbol id="clock">
<path d="M12.7578 7V12L15.7578 15M21.7578 12C21.7578 16.9706 17.7284 21 12.7578 21C7.78725 21 3.75781 16.9706 3.75781 12C3.75781 7.02944 7.78725 3 12.7578 3C17.7284 3 21.7578 7.02944 21.7578 12Z" stroke="#54ADFF" stroke-width="1.5" stroke-linecap="round" stroke-linejoin="round" fill="none" />
</symbol>
<symbol id="cross-small">
<path d="M16 8L8 16M8.00003 8L16 16" stroke="#54ADFF" stroke-width="1.5" stroke-linecap="round" stroke-linejoin="round"/>
</symbol>
<symbol id="cross">
<path d="M19 5L5 19M5.00004 5L19 19" stroke="#54ADFF" stroke-width="1.5" stroke-linecap="round" stroke-linejoin="round"/>
</symbol>
<symbol id="edit">
<path d="M5 15.7059L4.46967 15.1756C4.32902 15.3162 4.25 15.507 4.25 15.7059H5ZM15.7059 5L16.2362 4.46967C15.9433 4.17678 15.4684 4.17678 15.1756 4.46967L15.7059 5ZM19 8.29412L19.5303 8.82445C19.8232 8.53155 19.8232 8.05668 19.5303 7.76379L19 8.29412ZM8.29412 19V19.75C8.49303 19.75 8.6838 19.671 8.82445 19.5303L8.29412 19ZM5 19H4.25C4.25 19.4142 4.58579 19.75 5 19.75V19ZM11.5882 18.25C11.174 18.25 10.8382 18.5858 10.8382 19C10.8382 19.4142 11.174 19.75 11.5882 19.75V18.25ZM18.5882 19.75C19.0024 19.75 19.3382 19.4142 19.3382 19C19.3382 18.5858 19.0024 18.25 18.5882 18.25V19.75ZM5.53033 16.2362L16.2362 5.53033L15.1756 4.46967L4.46967 15.1756L5.53033 16.2362ZM15.1756 5.53033L18.4697 8.82445L19.5303 7.76379L16.2362 4.46967L15.1756 5.53033ZM18.4697 7.76379L7.76379 18.4697L8.82445 19.5303L19.5303 8.82445L18.4697 7.76379ZM8.29412 18.25H5V19.75H8.29412V18.25ZM5.75 19V15.7059H4.25V19H5.75ZM12.705 8.00092L15.9991 11.295L17.0597 10.2344L13.7656 6.94026L12.705 8.00092ZM11.5882 19.75H18.5882V18.25H11.5882V19.75Z" fill="#54ADFF"/>
</symbol>
<symbol id="eye-closed">
<path d="M9.76406 5.29519C10.4664 5.10724 11.2123 5 12 5C18.3636 5 22 12 22 12C22 12 21.171 13.5958 19.612 15.2635M4.34912 8.77822C2.8152 10.4307 2 12 2 12C2 12 5.63636 19 12 19C12.8021 19 13.5608 18.8888 14.2744 18.6944M11.5 14.9585C10.4158 14.7766 9.52883 14.0132 9.17071 13M12.5 9.04148C13.7563 9.25224 14.7478 10.2437 14.9585 11.5M3 3L21 21" stroke="#54ADFF" stroke-width="1.5" stroke-linecap="round" stroke-linejoin="round" fill="none"/>
</symbol>
<symbol id="eye-open">
<path d="M2 12C2 12 5.63636 5 12 5C18.3636 5 22 12 22 12C22 12 18.3636 19 12 19C5.63636 19 2 12 2 12Z" stroke="#54ADFF" stroke-width="1.5" stroke-linecap="round" stroke-linejoin="round" fill="none"/>
<path d="M12 15C13.6569 15 15 13.6569 15 12C15 10.3431 13.6569 9 12 9C10.3431 9 9 10.3431 9 12C9 13.6569 10.3431 15 12 15Z" stroke="#54ADFF" stroke-width="1.5" stroke-linecap="round" stroke-linejoin="round" fill="none"/>
</symbol>
<symbol id="female">
<path d="M12.7578 13C15.5192 13 17.7578 10.7614 17.7578 8C17.7578 5.23858 15.5192 3 12.7578 3C9.99639 3 7.75781 5.23858 7.75781 8C7.75781 10.7614 9.99639 13 12.7578 13ZM12.7578 13L12.7578 21M9.75781 18L15.7578 18" stroke="#54ADFF" stroke-width="1.5" stroke-linecap="round" stroke-linejoin="round" fill="none"/>
</symbol>
<symbol id="filters">
<path d="M14 5C14 3.89543 13.1046 3 12 3C10.8954 3 10 3.89543 10 5M14 5C14 6.10457 13.1046 7 12 7C10.8954 7 10 6.10457 10 5M14 5H20M10 5L4 5M16 12C16 13.1046 16.8954 14 18 14C19.1046 14 20 13.1046 20 12C20 10.8954 19.1046 10 18 10C16.8954 10 16 10.8954 16 12ZM16 12H4M8 19C8 17.8954 7.10457 17 6 17C4.89543 17 4 17.8954 4 19C4 20.1046 4.89543 21 6 21C7.10457 21 8 20.1046 8 19ZM8 19H20" stroke="#54ADFF" stroke-width="1.5" stroke-linecap="round" fill="none"/>
</symbol>
<symbol id="filters-1">
<path d="M4.75781 4L9.75781 12V18L15.7578 21V12L20.7578 4H4.75781Z" stroke="#54ADFF" stroke-width="1.5" stroke-linecap="round" stroke-linejoin="round" fill="none"/>
</symbol>
<symbol id="heart">
<path d="M4.3314 12.0474L12 20L19.6686 12.0474C20.5211 11.1633 21 9.96429 21 8.71405C21 6.11055 18.9648 4 16.4543 4C15.2487 4 14.0925 4.49666 13.24 5.38071L12 6.66667L10.76 5.38071C9.90749 4.49666 8.75128 4 7.54569 4C5.03517 4 3 6.11055 3 8.71405C3 9.96429 3.47892 11.1633 4.3314 12.0474Z" stroke="#54ADFF" stroke-width="1.5" stroke-linecap="round" stroke-linejoin="round" fill="none"/>
</symbol>
<symbol id="location">
<path d="M20.7578 11C20.7578 15.4183 17.1761 19 12.7578 21C8.33953 19 4.75781 15.4183 4.75781 11C4.75781 6.58172 8.33953 3 12.7578 3C17.1761 3 20.7578 6.58172 20.7578 11Z" stroke="#54ADFF" stroke-width="1.5" stroke-linecap="round" stroke-linejoin="round" fill="none"/>
<path d="M15.7578 11C15.7578 12.6569 14.4147 14 12.7578 14C11.101 14 9.75781 12.6569 9.75781 11C9.75781 9.34315 11.101 8 12.7578 8C14.4147 8 15.7578 9.34315 15.7578 11Z" stroke="#54ADFF" stroke-width="1.5" stroke-linecap="round" stroke-linejoin="round" fill="none"/>
</symbol>
<symbol id="logout">
<path d="M14 4L18 4C19.1046 4 20 4.89543 20 6V18C20 19.1046 19.1046 20 18 20H14M3 12L15 12M3 12L7 8M3 12L7 16" stroke="#54ADFF" stroke-width="1.5" stroke-linecap="round" stroke-linejoin="round" fill="none"/>
</symbol>
<symbol id="male">
<path d="M12.7578 11C9.99639 11 7.75781 13.2386 7.75781 16C7.75781 18.7614 9.99639 21 12.7578 21C15.5192 21 17.7578 18.7614 17.7578 16C17.7578 13.2386 15.5192 11 12.7578 11ZM12.7578 11V3M12.7578 3L16.7578 7M12.7578 3L8.75781 7" stroke="#54ADFF" stroke-width="1.5" stroke-linecap="round" stroke-linejoin="round" fill="none"/>
</symbol>
<symbol id="menu-hamburger">
<path d="M4 7H20M4 12H20M4 17H20" stroke="#54ADFF" stroke-width="1.5" stroke-linecap="round" stroke-linejoin="round" fill="none"/>
</symbol>
<symbol id="pawprint" >
<g clip-path="url(#clip0_31009_547)">
<path d="M15.3613 14.3621C15.0946 12.3788 13.8528 10.6897 12.0393 9.84408C10.2259 8.99851 8.13364 9.13284 6.44302 10.2034L2.36887 12.7829C1.69287 13.211 1.18351 13.8319 0.895812 14.5784C0.608038 15.3251 0.569171 16.1272 0.783156 16.8984C0.997551 17.6695 1.44487 18.3367 2.07661 18.8281C2.70843 19.3193 3.46541 19.5884 4.26566 19.6062L4.31795 19.6072C6.32515 19.6661 8.23238 20.5633 9.55763 22.0739C9.89947 22.4634 10.3104 22.7714 10.7701 22.9858C11.02 23.1023 11.2847 23.1912 11.5602 23.2506C12.3426 23.4188 13.1413 23.3326 13.87 23.0013C14.5983 22.6697 15.1881 22.1243 15.5753 21.424C15.9625 20.7235 16.1108 19.9341 16.0042 19.141L15.3613 14.3621ZM13.2874 21.7207C12.3605 22.1422 11.2867 21.9114 10.6152 21.1461C9.81708 20.2364 8.84232 19.5131 7.76431 19.0104C6.68729 18.5082 5.50694 18.2263 4.29792 18.1995L4.2635 18.1988C3.25999 18.1624 2.40849 17.492 2.1386 16.5219C1.86646 15.541 2.26132 14.5161 3.1214 13.9715L7.19572 11.392C8.47945 10.5792 10.0677 10.4772 11.4446 11.1192C12.8215 11.7613 13.7645 13.0437 13.9671 14.5496L14.6099 19.3284C14.7455 20.3378 14.214 21.2991 13.2874 21.7207Z" fill="#54ADFF"/>
<path d="M4.72141 9.39524C5.54872 9.45292 6.34539 9.13609 6.96485 8.50306C7.55409 7.90059 7.91268 7.07743 7.9743 6.18489C8.03553 5.29277 7.79336 4.42827 7.29259 3.75049C6.76615 3.03851 6.02075 2.61496 5.19438 2.55832C3.53247 2.44301 2.0737 3.88292 1.94231 5.76906C1.8395 7.27113 2.60962 8.6087 3.76712 9.14845C4.06268 9.28627 4.38352 9.37204 4.72141 9.39524ZM3.34575 5.86588C3.42319 4.75444 4.20887 3.90011 5.09756 3.96176C5.25809 3.97278 5.41412 4.01382 5.56098 4.0823C5.78767 4.18801 5.99296 4.35909 6.16113 4.58682C6.4637 4.996 6.60917 5.52933 6.57079 6.08824C6.53208 6.6474 6.31495 7.15549 5.95913 7.5191C5.63302 7.85232 5.22802 8.02026 4.81905 7.99178L4.81823 7.99181C3.93038 7.93095 3.26986 6.97704 3.34575 5.86588Z" fill="#54ADFF"/>
<path d="M10.6413 8.64674C12.403 9.46825 14.5978 8.50366 15.5337 6.4965C16.4699 4.48884 15.7982 2.1872 14.0365 1.36569C12.2749 0.544262 10.0802 1.50926 9.144 3.51692C8.20804 5.52408 8.87973 7.82531 10.6413 8.64674ZM13.442 2.64068C14.5006 3.13431 14.8671 4.59743 14.2587 5.90196C13.6507 7.206 12.2944 7.86538 11.2358 7.37175C10.1772 6.87812 9.81091 5.41549 10.419 4.11146C11.0273 2.80692 12.3834 2.14705 13.442 2.64068Z" fill="#54ADFF"/>
<path d="M15.7437 12.1141L15.7439 12.1142C15.973 12.3305 16.2294 12.5024 16.5047 12.6308C17.7895 13.2299 19.4776 12.8786 20.6256 11.6643C21.2865 10.9654 21.6763 10.0822 21.7231 9.17769C21.7722 8.23102 21.4445 7.37435 20.8004 6.76527C20.1561 6.15653 19.2819 5.8774 18.3394 5.97975C17.4389 6.07767 16.5793 6.51648 15.9189 7.21567C14.5251 8.69034 14.4466 10.8878 15.7437 12.1141ZM16.9413 8.18197C17.3726 7.72545 17.923 7.44025 18.4915 7.37844C19.0174 7.32122 19.4943 7.46662 19.8341 7.78771C20.1736 8.10889 20.3455 8.57654 20.3181 9.10483C20.2885 9.67571 20.0348 10.2415 19.6032 10.6978C18.7422 11.6088 17.4444 11.7855 16.7102 11.0918C15.9768 10.3982 16.0804 9.09291 16.9413 8.18197Z" fill="#54ADFF"/>
<path d="M22.6699 14.8269L22.6696 14.8262C21.8732 13.3622 19.8748 12.9039 18.2144 13.8049C16.5546 14.707 15.8507 16.6321 16.645 18.0959C16.9346 18.6299 17.3843 19.0304 17.9193 19.2798C18.8518 19.7147 20.0439 19.6911 21.1004 19.1182C22.7601 18.2161 23.4642 16.2911 22.6699 14.8269ZM20.4293 17.8818C19.4491 18.4133 18.3064 18.2084 17.8816 17.4249C17.4569 16.6424 17.9076 15.5729 18.8859 15.0411C19.5359 14.6884 20.2581 14.6603 20.7949 14.9107C21.0664 15.0373 21.2906 15.2351 21.4337 15.4984C21.8576 16.2812 21.4069 17.3503 20.4293 17.8818Z" fill="#54ADFF"/>
</g>
<clipPath id="clip0_31009_547">
<rect width="24" height="24" fill="white"/>
</clipPath>
</symbol>
<symbol id="plus-small" >
<path d="M12 7V17M7 12L17 12" stroke="#54ADFF" stroke-width="1.5" stroke-linecap="round" stroke-linejoin="round"/>
</symbol>
<symbol id="plus" >
<path d="M12 20V12M12 12V4M12 12H20M12 12H4" stroke="#54ADFF" stroke-width="2" stroke-linecap="round"/>
</symbol>
<symbol id="round" >
<path d="M4 8C4 5.79086 5.79086 4 8 4H16C18.2091 4 20 5.79086 20 8V16C20 18.2091 18.2091 20 16 20H8C5.79086 20 4 18.2091 4 16V8Z" stroke="#54ADFF" stroke-width="1.5" stroke-linejoin="round" fill="none"/>
</symbol>
<symbol id="search" >
<path d="M19.4697 20.5303C19.7626 20.8232 20.2374 20.8232 20.5303 20.5303C20.8232 20.2374 20.8232 19.7626 20.5303 19.4697L19.4697 20.5303ZM17.25 10.5C17.25 14.2279 14.2279 17.25 10.5 17.25V18.75C15.0563 18.75 18.75 15.0563 18.75 10.5H17.25ZM10.5 17.25C6.77208 17.25 3.75 14.2279 3.75 10.5H2.25C2.25 15.0563 5.94365 18.75 10.5 18.75V17.25ZM3.75 10.5C3.75 6.77208 6.77208 3.75 10.5 3.75V2.25C5.94365 2.25 2.25 5.94365 2.25 10.5H3.75ZM10.5 3.75C14.2279 3.75 17.25 6.77208 17.25 10.5H18.75C18.75 5.94365 15.0563 2.25 10.5 2.25V3.75ZM20.5303 19.4697L16.3428 15.2821L15.2821 16.3428L19.4697 20.5303L20.5303 19.4697Z" fill="#54ADFF"/>
</symbol>
<symbol id="trash" >
<path d="M18 6V18C18 19.1046 17.1046 20 16 20H8C6.89543 20 6 19.1046 6 18V6M15 6V5C15 3.89543 14.1046 3 13 3H11C9.89543 3 9 3.89543 9 5V6M4 6H20M10 10V16M14 10V16" stroke="#54ADFF" stroke-width="1.5" stroke-linecap="round" stroke-linejoin="round" fill="none"/>
</symbol>
<symbol id="user" >
<path d="M22 24V22C22 19.7909 20.2091 18 18 18H10C7.79086 18 6 19.7909 6 22V24M18 10C18 12.2091 16.2091 14 14 14C11.7909 14 10 12.2091 10 10C10 7.79086 11.7909 6 14 6C16.2091 6 18 7.79086 18 10Z" stroke="#FFC107" stroke-width="1.5" stroke-linecap="round" stroke-linejoin="round" fill="none"/>
<rect x="0.75" y="0.75" width="26.5" height="26.5" rx="13.25" stroke="#FFC107" stroke-width="1.5" fill="none"/>
</symbol>
</defs>
</svg>

<svg xmlns="http://www.w3.org/2000/svg" aria-hidden="true" style="position:absolute;width:0;height:0;overflow:hidden;fill:none"><defs><symbol id="arrow-left"><path stroke="#54ADFF" stroke-linecap="round" stroke-linejoin="round" stroke-width="1.5" d="M4 12h16M4 12l6-6m-6 6 6 6"/></symbol><symbol id="camera"><path stroke="#54ADFF" stroke-linejoin="round" stroke-width="1.5" d="M12 16a3 3 0 1 0 0-6 3 3 0 0 0 0 6Z"/><path stroke="#54ADFF" stroke-linejoin="round" stroke-width="1.5" d="M3 9a2 2 0 0 1 2-2h2.5a1 1 0 0 0 1-1 1 1 0 0 1 1-1h5a1 1 0 0 1 1 1 1 1 0 0 0 1 1H19a2 2 0 0 1 2 2v8a2 2 0 0 1-2 2H5a2 2 0 0 1-2-2V9Z"/></symbol><symbol id="check-round"><path stroke="#54ADFF" stroke-linecap="round" stroke-linejoin="round" stroke-width="1.5" d="m17 9-7 7-3-3m1 7h8a4 4 0 0 0 4-4V8a4 4 0 0 0-4-4H8a4 4 0 0 0-4 4v8a4 4 0 0 0 4 4Z"/></symbol><symbol id="check"><path stroke="#54ADFF" stroke-linecap="round" stroke-linejoin="round" stroke-width="1.5" d="M20 7 9 18l-5-5"/></symbol><symbol id="arrow-down"><path stroke="#54ADFF" stroke-linecap="round" stroke-linejoin="round" stroke-width="1.5" d="m4 9 8 8 8-8"/></symbol><symbol id="arrow-up"><path stroke="#54ADFF" stroke-linecap="round" stroke-linejoin="round" stroke-width="1.5" d="m20 15-8-8-8 8"/></symbol><symbol id="clock"><path stroke="#54ADFF" stroke-linecap="round" stroke-linejoin="round" stroke-width="1.5" d="M12.758 7v5l3 3m6-3a9 9 0 1 1-18 0 9 9 0 0 1 18 0Z"/></symbol><symbol id="cross-small"><path stroke="#54ADFF" stroke-linecap="round" stroke-linejoin="round" stroke-width="1.5" d="m16 8-8 8m0-8 8 8"/></symbol><symbol id="cross"><path stroke="#54ADFF" stroke-linecap="round" stroke-linejoin="round" stroke-width="1.5" d="M19 5 5 19M5 5l14 14"/></symbol><symbol id="edit"><path fill="#54ADFF" d="m5 15.706-.53-.53a.75.75 0 0 0-.22.53H5ZM15.706 5l.53-.53a.75.75 0 0 0-1.06 0l.53.53ZM19 8.294l.53.53a.75.75 0 0 0 0-1.06l-.53.53ZM8.294 19v.75a.75.75 0 0 0 .53-.22l-.53-.53ZM5 19h-.75c0 .414.336.75.75.75V19Zm6.588-.75a.75.75 0 0 0 0 1.5v-1.5Zm7 1.5a.75.75 0 0 0 0-1.5v1.5ZM5.53 16.236 16.236 5.53l-1.06-1.06L4.47 15.176l1.06 1.06ZM15.176 5.53l3.294 3.294 1.06-1.06-3.294-3.294-1.06 1.06Zm3.294 2.234L7.764 18.47l1.06 1.06L19.53 8.824l-1.06-1.06ZM8.294 18.25H5v1.5h3.294v-1.5ZM5.75 19v-3.294h-1.5V19h1.5Zm6.955-11 3.294 3.295 1.06-1.06-3.293-3.295L12.705 8Zm-1.117 11.75h7v-1.5h-7v1.5Z"/></symbol><symbol id="eye-closed"><path stroke="#54ADFF" stroke-linecap="round" stroke-linejoin="round" stroke-width="1.5" d="M9.764 5.295A8.618 8.618 0 0 1 12 5c6.364 0 10 7 10 7s-.829 1.596-2.388 3.264M4.349 8.777C2.815 10.431 2 12 2 12s3.636 7 10 7a8.62 8.62 0 0 0 2.274-.306M11.5 14.96A3.004 3.004 0 0 1 9.17 13m3.33-3.959a3.002 3.002 0 0 1 2.459 2.459M3 3l18 18"/></symbol><symbol id="eye-open"><path stroke="#54ADFF" stroke-linecap="round" stroke-linejoin="round" stroke-width="1.5" d="M2 12s3.636-7 10-7 10 7 10 7-3.636 7-10 7-10-7-10-7Z"/><path stroke="#54ADFF" stroke-linecap="round" stroke-linejoin="round" stroke-width="1.5" d="M12 15a3 3 0 1 0 0-6 3 3 0 0 0 0 6Z"/></symbol><symbol id="female"><path stroke="#54ADFF" stroke-linecap="round" stroke-linejoin="round" stroke-width="1.5" d="M12.758 13a5 5 0 1 0 0-10 5 5 0 0 0 0 10Zm0 0v8m-3-3h6"/></symbol><symbol id="filters"><path stroke="#54ADFF" stroke-linecap="round" stroke-width="1.5" d="M14 5a2 2 0 1 0-4 0m4 0a2 2 0 1 1-4 0m4 0h6M10 5H4m12 7a2 2 0 1 0 4 0 2 2 0 0 0-4 0Zm0 0H4m4 7a2 2 0 1 0-4 0 2 2 0 0 0 4 0Zm0 0h12"/></symbol><symbol id="filters-1"><path stroke="#54ADFF" stroke-linecap="round" stroke-linejoin="round" stroke-width="1.5" d="m4.758 4 5 8v6l6 3v-9l5-8h-16Z"/></symbol><symbol id="heart"><path stroke="#54ADFF" stroke-linecap="round" stroke-linejoin="round" stroke-width="1.5" d="M4.331 12.047 12 20l7.669-7.953A4.804 4.804 0 0 0 21 8.714C21 6.111 18.965 4 16.454 4a4.465 4.465 0 0 0-3.214 1.38L12 6.668 10.76 5.38A4.465 4.465 0 0 0 7.546 4C5.036 4 3 6.11 3 8.714c0 1.25.479 2.45 1.331 3.333Z"/></symbol><symbol id="location"><path stroke="#54ADFF" stroke-linecap="round" stroke-linejoin="round" stroke-width="1.5" d="M20.758 11c0 4.418-3.582 8-8 10-4.418-2-8-5.582-8-10a8 8 0 1 1 16 0Z"/><path stroke="#54ADFF" stroke-linecap="round" stroke-linejoin="round" stroke-width="1.5" d="M15.758 11a3 3 0 1 1-6 0 3 3 0 0 1 6 0Z"/></symbol><symbol id="logout"><path stroke="#54ADFF" stroke-linecap="round" stroke-linejoin="round" stroke-width="1.5" d="M14 4h4a2 2 0 0 1 2 2v12a2 2 0 0 1-2 2h-4M3 12h12M3 12l4-4m-4 4 4 4"/></symbol><symbol id="male"><path stroke="#54ADFF" stroke-linecap="round" stroke-linejoin="round" stroke-width="1.5" d="M12.758 11a5 5 0 1 0 0 10 5 5 0 0 0 0-10Zm0 0V3m0 0 4 4m-4-4-4 4"/></symbol><symbol id="menu-hamburger"><path stroke="#54ADFF" stroke-linecap="round" stroke-linejoin="round" stroke-width="1.5" d="M4 7h16M4 12h16M4 17h16"/></symbol><symbol id="pawprint"><g fill="#54ADFF" clip-path="url(#clip0_31009_547)"><path d="M15.361 14.362a5.82 5.82 0 0 0-3.322-4.518 5.82 5.82 0 0 0-5.596.36l-4.074 2.579a3.675 3.675 0 0 0-1.473 1.795 3.674 3.674 0 0 0-.113 2.32 3.675 3.675 0 0 0 1.294 1.93c.631.491 1.388.76 2.189.778l.052.001a7.271 7.271 0 0 1 5.24 2.467 3.68 3.68 0 0 0 2.002 1.177 3.675 3.675 0 0 0 2.31-.25 3.675 3.675 0 0 0 1.705-1.577c.388-.7.536-1.49.43-2.283l-.644-4.779Zm-2.074 7.359c-.927.421-2 .19-2.672-.575a8.662 8.662 0 0 0-2.85-2.136 8.662 8.662 0 0 0-3.467-.81l-.035-.001a2.28 2.28 0 0 1-2.124-1.677 2.28 2.28 0 0 1 .982-2.55l4.075-2.58a4.418 4.418 0 0 1 4.249-.273 4.419 4.419 0 0 1 2.522 3.43l.643 4.78a2.28 2.28 0 0 1-1.323 2.392ZM4.721 9.395c.828.058 1.624-.259 2.244-.892.59-.602.948-1.426 1.01-2.318.06-.892-.182-1.757-.682-2.435-.527-.711-1.272-1.135-2.099-1.192-1.662-.115-3.12 1.325-3.252 3.211-.103 1.502.668 2.84 1.825 3.38.296.137.617.223.954.246Zm-1.375-3.53c.077-1.11.863-1.965 1.752-1.903.16.01.316.052.463.12.227.106.432.277.6.505.303.409.448.942.41 1.501-.039.56-.256 1.067-.612 1.431-.326.333-.731.501-1.14.473-.889-.061-1.55-1.015-1.473-2.126ZM10.641 8.647c1.762.821 3.957-.143 4.893-2.15.936-2.008.264-4.31-1.498-5.131-1.761-.822-3.956.143-4.892 2.15-.936 2.008-.264 4.31 1.497 5.13Zm2.801-6.006c1.059.493 1.425 1.956.817 3.261-.608 1.304-1.965 1.963-3.023 1.47-1.059-.494-1.425-1.957-.817-3.26.608-1.305 1.964-1.965 3.023-1.471ZM15.744 12.114c.229.216.485.388.76.517 1.285.599 2.974.248 4.122-.967.66-.699 1.05-1.582 1.097-2.486.05-.947-.278-1.804-.923-2.413-.644-.608-1.518-.888-2.46-.785-.901.098-1.76.536-2.421 1.236-1.394 1.474-1.472 3.672-.175 4.898Zm1.197-3.932c.432-.457.982-.742 1.55-.804.526-.057 1.003.089 1.343.41.34.32.512.789.484 1.317-.03.57-.283 1.136-.715 1.593-.86.91-2.159 1.088-2.893.394-.733-.694-.63-2 .231-2.91ZM22.67 14.827c-.797-1.465-2.795-1.923-4.456-1.022-1.66.902-2.363 2.827-1.569 4.29.29.535.74.935 1.274 1.185.933.435 2.125.411 3.181-.162 1.66-.902 2.364-2.827 1.57-4.291Zm-2.24 3.055c-.98.531-2.124.326-2.548-.457-.425-.783.026-1.852 1.004-2.384.65-.353 1.372-.38 1.909-.13.271.126.496.324.639.587.424.783-.027 1.852-1.005 2.384Z"/></g><clipPath id="clip0_31009_547"><path fill="#fff" d="M0 0h24v24H0z"/></clipPath></symbol><symbol id="plus-small"><path stroke="#54ADFF" stroke-linecap="round" stroke-linejoin="round" stroke-width="1.5" d="M12 7v10m-5-5h10"/></symbol><symbol id="plus"><path stroke="#54ADFF" stroke-linecap="round" stroke-width="2" d="M12 20v-8m0 0V4m0 8h8m-8 0H4"/></symbol><symbol id="round"><path stroke="#54ADFF" stroke-linejoin="round" stroke-width="1.5" d="M4 8a4 4 0 0 1 4-4h8a4 4 0 0 1 4 4v8a4 4 0 0 1-4 4H8a4 4 0 0 1-4-4V8Z"/></symbol><symbol id="search"><path fill="#54ADFF" d="M19.47 20.53a.75.75 0 1 0 1.06-1.06l-1.06 1.06ZM17.25 10.5a6.75 6.75 0 0 1-6.75 6.75v1.5a8.25 8.25 0 0 0 8.25-8.25h-1.5Zm-6.75 6.75a6.75 6.75 0 0 1-6.75-6.75h-1.5a8.25 8.25 0 0 0 8.25 8.25v-1.5ZM3.75 10.5a6.75 6.75 0 0 1 6.75-6.75v-1.5a8.25 8.25 0 0 0-8.25 8.25h1.5Zm6.75-6.75a6.75 6.75 0 0 1 6.75 6.75h1.5a8.25 8.25 0 0 0-8.25-8.25v1.5Zm10.03 15.72-4.187-4.188-1.06 1.06 4.187 4.188 1.06-1.06Z"/></symbol><symbol id="trash"><path stroke="#54ADFF" stroke-linecap="round" stroke-linejoin="round" stroke-width="1.5" d="M18 6v12a2 2 0 0 1-2 2H8a2 2 0 0 1-2-2V6m9 0V5a2 2 0 0 0-2-2h-2a2 2 0 0 0-2 2v1M4 6h16m-10 4v6m4-6v6"/></symbol><symbol id="user"><path stroke="#FFC107" stroke-linecap="round" stroke-linejoin="round" stroke-width="1.5" d="M22 24v-2a4 4 0 0 0-4-4h-8a4 4 0 0 0-4 4v2m12-14a4 4 0 1 1-8 0 4 4 0 0 1 8 0Z"/><rect width="26.5" height="26.5" x=".75" y=".75" stroke="#FFC107" stroke-width="1.5" rx="13.25"/></symbol></defs></svg>
